src/assets/images/babolat.svg

<svg width="51" height="133" viewBox="0 0 51 133" fill="none" xmlns="http://www.w3.org/2000/svg">
<path d="M46.6821 10.6242V127.888C46.6821 129.384 45.4701 130.615 43.9551 130.615H7.02599C5.52989 130.615 4.29892 129.403 4.29892 127.888V10.6242H46.6821ZM2.42406 8.73041V127.888C2.42406 130.426 4.4883 132.509 7.04493 132.509H43.974C46.5117 132.509 48.5949 130.445 48.5949 127.888V8.73041H2.42406Z" fill="black"/>
<path d="M0 0H51V5.37839H0V0Z" fill="black"/>
<path d="M25.1686 24.4489C26.4185 24.4489 27.3465 24.6951 27.9146 25.1875C28.4827 25.6799 28.7668 26.3238 28.7668 27.1192C28.7668 27.6305 28.6721 28.0661 28.4638 28.4638C28.2744 28.8426 27.9904 29.1266 27.6305 29.316C28.0661 29.5433 28.4259 29.8463 28.6911 30.244C28.9562 30.6227 29.0698 31.1909 29.0698 31.9484C29.0698 33.8801 27.5358 34.8648 24.4868 34.8648H22.8203V24.4489H25.1686ZM25.3012 28.6721C25.8314 28.6721 26.2291 28.5774 26.4943 28.407C26.7594 28.2365 26.8919 27.8767 26.8919 27.3275C26.8919 26.8541 26.7404 26.5132 26.4374 26.3427C26.1344 26.1534 25.7367 26.0776 25.2065 26.0776H24.8088V28.691H25.3012V28.6721ZM25.2633 33.2172C25.9261 33.2172 26.3996 33.0468 26.7026 32.7248C27.0056 32.4029 27.1381 32.0431 27.1381 31.6454C27.1381 31.0394 26.9866 30.6417 26.6647 30.4523C26.3427 30.2629 25.9072 30.1493 25.3201 30.1493H24.8845V33.2172H25.2633Z" fill="black"/>
<path d="M22.0438 48.7085L24.2406 38.4441L27.1381 38.3115L29.3918 48.6138L27.176 48.6896L26.7973 46.4549H24.3164L23.8808 48.6896H22.0438V48.7085ZM24.6762 44.8073H26.3996L25.4527 39.8266L24.6762 44.8073Z" fill="black"/>
<path d="M25.1686 52.1742C26.4185 52.1742 27.3465 52.4203 27.9146 52.9127C28.4827 53.4051 28.7668 54.049 28.7668 54.8444C28.7668 55.3557 28.6721 55.7913 28.4638 56.189C28.2744 56.5678 27.9904 56.8518 27.6305 57.0412C28.0661 57.2685 28.4259 57.5715 28.6911 57.9692C28.9562 58.3479 29.0698 58.9161 29.0698 59.6736C29.0698 61.6053 27.5358 62.59 24.4868 62.59H22.8203V52.1742H25.1686ZM25.3012 56.3973C25.8314 56.3973 26.2291 56.3026 26.4943 56.1322C26.7594 55.9618 26.8919 55.6019 26.8919 55.0527C26.8919 54.5793 26.7404 54.2384 26.4374 54.068C26.1344 53.8786 25.7367 53.8028 25.2065 53.8028H24.8088V56.4163H25.3012V56.3973ZM25.2633 60.9424C25.9261 60.9424 26.3996 60.772 26.7026 60.4501C27.0056 60.1281 27.1381 59.7683 27.1381 59.3706C27.1381 58.7646 26.9866 58.3669 26.6647 58.1775C26.3427 57.9881 25.9072 57.8745 25.3201 57.8745H24.8845V60.9424H25.2633Z" fill="black"/>
<path d="M23.1801 75.0891C22.7067 74.0854 22.4605 72.7597 22.4605 71.169C22.4605 69.4645 22.7067 68.1389 23.218 67.2109C23.7293 66.283 24.5436 65.8284 25.6799 65.8284C27.8389 65.8284 28.8994 67.5897 28.8994 71.1121C28.8994 72.684 28.6532 74.0097 28.1797 75.0512C27.6873 76.0928 26.8541 76.6231 25.642 76.6231C24.4868 76.6042 23.6536 76.0928 23.1801 75.0891ZM26.6647 74.0097C26.8162 73.3658 26.8919 72.3999 26.8919 71.0932C26.8919 70.0516 26.8162 69.1805 26.6647 68.4987C26.5132 67.8169 26.1912 67.4571 25.6799 67.4571C25.1686 67.4571 24.8656 67.798 24.7141 68.4798C24.5626 69.1615 24.4868 70.0327 24.4868 71.0743C24.4868 72.381 24.5626 73.3658 24.7141 74.0097C24.8656 74.6535 25.1875 74.9755 25.6799 74.9755C26.1723 74.9755 26.4942 74.6535 26.6647 74.0097Z" fill="black"/>
<path d="M23.4074 90.2774V80.0509L25.4337 79.8804V88.6487H28.8426L28.6342 90.2774H23.4074Z" fill="black"/>
<path d="M22.0438 104.121L24.2406 93.8567L27.1381 93.7241L29.3918 104.026L27.176 104.102L26.7973 101.867H24.3164L23.8808 104.102H22.0438V104.121ZM24.6762 100.239H26.3996L25.4527 95.2581L24.6762 100.239Z" fill="black"/>
<path d="M24.6951 118.059V109.196H22.5741L22.7256 107.568H28.8236L28.6532 109.196H26.7215V117.889L24.6951 118.059Z" fill="black"/>
</svg>

<svg width="51" height="133" fill="none" xmlns="http://www.w3.org/2000/svg"><path d="M46.682 10.624v117.264a2.728 2.728 0 0 1-2.727 2.727H7.026a2.728 2.728 0 0 1-2.727-2.727V10.624h42.383ZM2.424 8.73v119.158a4.627 4.627 0 0 0 4.62 4.621h36.93a4.627 4.627 0 0 0 4.62-4.621V8.73H2.425ZM0 0h51v5.378H0V0Z" fill="#000"/><path d="M25.169 24.449c1.25 0 2.177.246 2.746.738.568.493.852 1.137.852 1.932 0 .512-.095.947-.303 1.345a1.91 1.91 0 0 1-.833.852c.435.227.795.53 1.06.928.265.379.379.947.379 1.704 0 1.932-1.534 2.917-4.583 2.917H22.82V24.449h2.349Zm.132 4.223c.53 0 .928-.095 1.193-.265s.398-.53.398-1.08c0-.473-.152-.814-.455-.984-.303-.19-.7-.265-1.23-.265h-.398v2.613h.492v-.019Zm-.038 4.545c.663 0 1.137-.17 1.44-.492.303-.322.435-.682.435-1.08 0-.606-.151-1.003-.473-1.193-.322-.19-.758-.303-1.345-.303h-.436v3.068h.38ZM22.044 48.709l2.197-10.265 2.897-.133 2.254 10.303-2.216.076-.379-2.235h-2.48l-.436 2.235h-1.837v.019Zm2.632-3.902H26.4l-.947-4.98-.777 4.98ZM25.169 52.174c1.25 0 2.177.246 2.746.739.568.492.852 1.136.852 1.931 0 .512-.095.947-.303 1.345a1.91 1.91 0 0 1-.833.852c.435.228.795.53 1.06.928.265.379.379.947.379 1.705 0 1.931-1.534 2.916-4.583 2.916H22.82V52.174h2.349Zm.132 4.223c.53 0 .928-.094 1.193-.265.265-.17.398-.53.398-1.08 0-.473-.152-.814-.455-.984-.303-.19-.7-.265-1.23-.265h-.398v2.613h.492v-.019Zm-.038 4.545c.663 0 1.137-.17 1.44-.492.303-.322.435-.682.435-1.08 0-.605-.151-1.003-.473-1.192-.322-.19-.758-.303-1.345-.303h-.436v3.067h.38ZM23.18 75.09c-.473-1.005-.72-2.33-.72-3.921 0-1.704.247-3.03.758-3.958.511-.928 1.326-1.383 2.462-1.383 2.159 0 3.22 1.762 3.22 5.284 0 1.572-.247 2.898-.72 3.94-.493 1.04-1.326 1.571-2.538 1.571-1.155-.019-1.988-.53-2.462-1.534Zm3.485-1.08c.151-.644.227-1.61.227-2.917 0-1.041-.076-1.913-.227-2.594-.152-.682-.474-1.042-.985-1.042s-.814.341-.966 1.023c-.151.681-.227 1.553-.227 2.594 0 1.307.076 2.292.227 2.936.152.643.474.965.966.965s.814-.322.985-.965ZM23.407 90.277V80.051l2.027-.17v8.768h3.409l-.209 1.628h-5.227ZM22.044 104.121l2.197-10.264 2.897-.133 2.254 10.302-2.216.076-.379-2.235h-2.48l-.436 2.235h-1.837v.019Zm2.632-3.882H26.4l-.947-4.98-.777 4.98ZM24.695 118.059v-8.863h-2.12l.15-1.628h6.099l-.17 1.628H26.72v8.693l-2.026.17Z" fill="#000"/></svg>
